X:1
T:Opsang for Jonas Anton Hjelm
T:Opsang for Jonas Anton Hjelm
T:Ukjent Arr. J. Rietz 
T:Henrik Wergeland
T:hurra boy!
T:hurra boy!
C:tysk folkemelodi
C:arr. J. Rietz
Z:Henrik Wergeland
Z:hurra boy!
%%score [ 1 2 3 4 ]
L:1/8
Q:1/4=80
M:2/4
K:A
V:1 treble-8 nm="T1"
V:2 treble-8 nm="T2"
V:3 bass nm="B1"
V:4 bass nm="B2"
V:1
!mf! A | !>!A3/2 c/ c c | c e !>!e2 |!f!{/e} d d/ c/ d e | !>!c2 z :| c | d f f f | %7
w: 1.Hur-|ra for Jo- nas|An- ton Hjelm!|Sing sai- lor, oh! hur-|ra!|Han|var for Nor ge|
w: Hvo|ham ej æ- rer,|er en Skjelm.|||Han|er vel værd en|
w: 2.Han|er vel værd sin|e- gen Sang.|||Nu|kan vi sej- le|
w:     Han|slog for Fla- get|mang- en Gang.|||||
w: 3.Nu|kan vi sej- le,|hvor vi vil,|||||
w: Le-|van- ten fra, Le-|van- ten til.|||||
 !>!f3/2 e/ e e | e d d d | !>!d3/2 c/ c2 |!mf! !>!B B/ c/ d B | !>!c c/ d/ e c | !>!B B/ c/ d B | %13
w: Hjelm og Spjud. Til|sidst han fri'- de|Fla- get ud.|Sing sai- lor, oh! hej,|hur- ra my boy, san!|Sing sai- lor, oh! Hol-|
w: Æ- res skaal; hans|Ta- le var som|Ild og Staal.||||
w: u- den Skam, men|al- drig skal vi|glem- me ham!||||
w: ||||||
w: ||||||
w: ||||||
!<(! (c2!<)! a2) |!f! !>!B B/ c/ d B | !>!c c/ d/ e c | !>!B B/ c/ d!<(! e/ e/!<)! | %17
w: loj! _|Sing sai- lor, oh! Hej,|hur- ra my boy, san!|Sing sai- lor, oh! Hur- ra|
w: ||||
w: ||||
w: ||||
w: ||||
w: ||||
 !fermata!a2 z |] %18
w: boy!|
w: |
w: |
w: |
w: |
w: |
V:2
!mf! A | A3/2 c/ c c | c c !>!c2 |!f!{/c} B B/ ^A/ B G | !>!=A2 z :| A | A d d d | d3/2 c/ c c | %8
w: 1.Hur-|ra for Jo- nas|An- ton Hjelm!|Sing sai- lor, oh! hur-|ra!|Han|var for Nor ge|Hjelm og Spjud. Til|
w: Hvo|ham ej æ- rer,|er en Skjelm.|||Han|er vel værd en|Æ- res skaal; hans|
w: 2.Han|er vel værd sin|e- gen Sang.|||Nu|kan vi sej- le|u- den Skam, men|
w:     Han|slog for Fla- get|mang- en Gang.||||||
w: 3.Nu|kan vi sej- le,|hvor vi vil,||||||
w: Le-|van- ten fra, Le-|van- ten til.||||||
 c B B B | !>!B3/2 A/ A2 |!mf! z e/ e/ e z | z e/ e/ e z | z e/ e/ e G | (A2 e2) | z2 z!f! e/ e/ | %15
w: sidst han fri'- de|Fla- get ud.|Sai- lor. oh!|Hur- ra boy!|Sai- lor, oh! Hol-|loj! _|Sai- lor|
w: Ta- le var som|Ild og Staal.||||||
w: al- drig skal vi|glem- me ham!||||||
w: |||||||
w: |||||||
w: |||||||
 e z z e/ e/ | e z z!<(! d/ d/!<)! | !fermata!c2 z |] %18
w: oh! Hur- ra|boy! Hur- ra|boy!|
w: |||
w: |||
w: |||
w: |||
w: |||
V:3
!mf! A, | A,3/2 A,/ A, A, | A, A, !>!A,2 |!f! E, E,/ E,/ E, E, | !>!E,2 z :| A, | A, A, A, B, | %7
w: 1.Hur-|ra for Jo- nas|An- ton Hjelm!|Sing sai- lor, oh! hur-|ra!|Han|var for Nor ge|
w: Hvo|ham ej æ- rer,|er en Skjelm.|||Han|er vel værd en|
w: 2.Han|er vel værd sin|e- gen Sang.|||Nu|kan vi sej- le|
w:     Han|slog for Fla- get|mang- en Gang.|||||
w: 3.Nu|kan vi sej- le,|hvor vi vil,|||||
w: Le-|van- ten fra, Le-|van- ten til.|||||
 A,3/2 A,/ A, A, | G, G, G, G, | !>!A,3/2 A,/ A,2 |!mf! !>!G, G,/ A,/ B, G, | !>!A, A,/ B,/ C A, | %12
w: Hjelm og Spjud. Til|sidst han fri'- de|Fla- get ud.|Sing sai- lor, oh! hej,|hur- ra my boy, san!|
w: Æ- res skaal; hans|Ta- le var som|Ild og Staal.|||
w: u- den Skam, men|al- drig skal vi|glem- me ham!|||
w: |||||
w: |||||
w: |||||
 !>!G, G,/ A,/ B, E, |!<(! (E,2 C2)!<)! |!f! !>!G, G,/ A,/ B, G, | !>!A, A,/ B,/ C A, | %16
w: Sing sai- lor, oh! hol-|loj! _|Sing sai- lor, oh! Hej,|hur- ra my boy, san!|
w: ||||
w: ||||
w: ||||
w: ||||
w: ||||
 !>!G, G,/ A,/ B,!<(! G,/ G,/!<)! | !fermata!A,2 z |] %18
w: Sing sai- lor, oh! Hur- ra|boy!|
w: ||
w: ||
w: ||
w: ||
w: ||
V:4
!mf! A, | !>!A,3/2 A,/ A, A, | A, A, !>!A,2 |!f! E, E,/ E,/ E, E, | !>!A,,2 z :| A, | F, D, F, G, | %7
w: 1.Hur-|ra for Jo- nas|An- ton Hjelm!|Sing sai- lor, oh! hur-|ra!|Han|var for Nor ge|
w: Hvo|ham ej æ rer,|er en~Skjelm. *|||Han|er vel værd en|
w: 2.Han|er vel værd sin|e- gen Sang.|||Nu|kan vi sej- le|
w: Han|slog for Fla get|mang- en Gang.|||||
w: 3.Nu|kan vi sej- le,|hvor vi vil,|||||
w: Le-|van- ten fra, Le-|van- ten til.|||||
 !>!A,3/2 A,/ A, A, | E, E, E, E, | !>!A,,3/2 A,,/ A,,2 |!mf! !>!E, z z E,/ E,/ | %11
w: Hjelm og Spjud. Til|sidst han fri' de|Fla get ud.|Sing Sai- lor,|
w: Æ- res skaal; hans|Ta le var som|Ild og Staal.||
w: u- den Skam, men|al drig skal vi|glem me ham!||
w: ||||
w: ||||
w: ||||
 !>!E, z z E,/ E,/ | !>!E, z z E,/ E,/ | (A,,2 A,2) |!f! !>!E, E,/ E,/ E, z | z E,/ E,/ E, z | %16
w: oh! Hur- ra|boy! Ho- la-|hoj! _|Sing sai- lor, oh!|Hur- ra boy!|
w: |||||
w: |||||
w: |||||
w: |||||
w: |||||
 z E,/ E,/ E,!<(! E,/ E,/!<)! | !fermata!A,,2 z |] %18
w: Sai- lor, oh! Hur- ra|boy!|
w: ||
w: ||
w: ||
w: ||
w: ||

